public/svgs/chevron-group.svg

<svg width="391" height="125" viewBox="0 0 391 125" fill="none" xmlns="http://www.w3.org/2000/svg">
<path d="M249.406 0C246.749 0 244.075 1.02091 242.05 3.04653C237.983 7.11396 237.983 13.7094 242.05 17.7606L286.314 62.0325L242.05 106.304C237.821 110.534 238 117.486 242.552 121.505C246.716 125.167 253.1 124.697 257.021 120.775L307.345 70.4428C311.979 65.8082 311.979 58.2891 307.345 53.6383L256.762 3.04653C254.736 1.02091 252.063 0 249.406 0Z" fill="#FFC300"/>
<path d="M289.182 0C286.525 0 283.852 1.02091 281.826 3.04653C277.76 7.11396 277.76 13.7094 281.826 17.7606L326.091 62.0325L281.826 106.304C277.598 110.534 277.776 117.486 282.329 121.505C286.493 125.167 292.876 124.697 296.797 120.775L347.121 70.4428C351.755 65.8082 351.755 58.2891 347.121 53.6383L296.538 3.04653C294.513 1.02091 291.839 0 289.182 0Z" fill="#FFC300"/>
<path d="M328.942 0C326.285 0 323.612 1.02091 321.586 3.04653C317.52 7.11396 317.52 13.7094 321.586 17.7606L365.851 62.0325L321.586 106.304C317.358 110.534 317.536 117.486 322.089 121.505C326.253 125.167 332.636 124.697 336.557 120.775L386.881 70.4428C391.515 65.8082 391.515 58.2891 386.881 53.6383L336.298 3.04653C334.273 1.02091 331.599 0 328.942 0Z" fill="#FFC300"/>
<g style="mix-blend-mode:multiply">
<path d="M285.358 61.0925L286.314 62.0486L242.05 106.32C237.821 110.55 237.999 117.502 242.552 121.521C246.716 125.183 253.1 124.713 257.021 120.791L307.345 70.459C309.905 67.8986 311.039 64.4469 310.779 61.1087H285.358V61.0925Z" fill="#E5E5E5"/>
<path d="M325.118 61.0925L326.074 62.0486L281.81 106.32C277.581 110.55 277.76 117.502 282.312 121.521C286.476 125.183 292.86 124.713 296.781 120.791L347.105 70.459C349.665 67.8986 350.799 64.4469 350.54 61.1087H325.118V61.0925Z" fill="#E5E5E5"/>
<path d="M364.895 61.0925L365.851 62.0486L321.586 106.32C317.358 110.55 317.536 117.502 322.089 121.521C326.253 125.183 332.636 124.713 336.557 120.791L386.881 70.459C389.441 67.8986 390.575 64.4469 390.316 61.1087H364.895V61.0925Z" fill="#E5E5E5"/>
</g>
<path d="M10.4059 0C7.74875 0 5.07533 1.02091 3.05006 3.04652C-1.01669 7.11396 -1.01669 13.7094 3.05006 17.7606L47.3144 62.0325L3.05006 106.304C-1.17871 110.534 -1.00049 117.486 3.55232 121.505C7.71627 125.167 14.0999 124.697 18.0208 120.775L68.3447 70.4428C72.9786 65.8082 72.9786 58.2891 68.3447 53.6383L17.7616 3.04652C15.7364 1.02091 13.0631 0 10.4059 0Z" fill="#FFC300"/>
<path d="M50.1821 0C47.525 0 44.8516 1.02091 42.8263 3.04653C38.7596 7.11396 38.7596 13.7094 42.8263 17.7606L87.0906 62.0325L42.8263 106.304C38.5975 110.534 38.7758 117.486 43.3286 121.505C47.4925 125.167 53.8763 124.697 57.7972 120.775L108.121 70.4428C112.755 65.8082 112.755 58.2891 108.121 53.6383L57.5379 3.04653C55.5126 1.02091 52.8393 0 50.1821 0Z" fill="#FFC300"/>
<path d="M89.9422 0C87.285 0 84.6117 1.02091 82.5864 3.04653C78.5197 7.11396 78.5197 13.7094 82.5864 17.7606L126.851 62.0325L82.5864 106.304C78.3577 110.534 78.5359 117.486 83.0887 121.505C87.2527 125.167 93.6363 124.697 97.5572 120.775L147.881 70.4428C152.515 65.8082 152.515 58.2891 147.881 53.6383L97.2979 3.04653C95.2727 1.02091 92.5993 0 89.9422 0Z" fill="#FFC300"/>
<g style="mix-blend-mode:multiply">
<path d="M46.3584 61.0925L47.3143 62.0486L3.04995 106.32C-1.17881 110.55 -1.00059 117.502 3.55222 121.521C7.71617 125.183 14.0998 124.713 18.0207 120.791L68.3446 70.459C70.9046 67.8986 72.0387 64.4469 71.7795 61.1087H46.3584V61.0925Z" fill="#E5E5E5"/>
<path d="M86.1184 61.0925L87.0743 62.0486L42.8101 106.32C38.5813 110.55 38.7595 117.502 43.3123 121.521C47.4763 125.183 53.8599 124.713 57.7809 120.791L108.105 70.459C110.665 67.8986 111.799 64.4469 111.54 61.1087H86.1184V61.0925Z" fill="#E5E5E5"/>
<path d="M125.895 61.0925L126.851 62.0486L82.5863 106.32C78.3576 110.55 78.5358 117.502 83.0886 121.521C87.2525 125.183 93.6362 124.713 97.5571 120.791L147.881 70.459C150.441 67.8986 151.575 64.4469 151.316 61.1087H125.895V61.0925Z" fill="#E5E5E5"/>
</g>
<path d="M129.406 0C126.749 0 124.075 1.02091 122.05 3.04653C117.983 7.11396 117.983 13.7094 122.05 17.7606L166.314 62.0325L122.05 106.304C117.821 110.534 118 117.486 122.552 121.505C126.716 125.167 133.1 124.697 137.021 120.775L187.345 70.4428C191.979 65.8082 191.979 58.2891 187.345 53.6383L136.762 3.04653C134.736 1.02091 132.063 0 129.406 0Z" fill="#FFC300"/>
<path d="M169.182 0C166.525 0 163.852 1.02091 161.826 3.04653C157.76 7.11396 157.76 13.7094 161.826 17.7606L206.091 62.0325L161.826 106.304C157.598 110.534 157.776 117.486 162.329 121.505C166.493 125.167 172.876 124.697 176.797 120.775L227.121 70.4428C231.755 65.8082 231.755 58.2891 227.121 53.6383L176.538 3.04653C174.513 1.02091 171.839 0 169.182 0Z" fill="#FFC300"/>
<path d="M208.942 0C206.285 0 203.612 1.02091 201.586 3.04653C197.52 7.11396 197.52 13.7094 201.586 17.7606L245.851 62.0325L201.586 106.304C197.358 110.534 197.536 117.486 202.089 121.505C206.253 125.167 212.636 124.697 216.557 120.775L266.881 70.4428C271.515 65.8082 271.515 58.2891 266.881 53.6383L216.298 3.04653C214.273 1.02091 211.599 0 208.942 0Z" fill="#FFC300"/>
<g style="mix-blend-mode:multiply">
<path d="M165.358 61.0925L166.314 62.0486L122.05 106.32C117.821 110.55 117.999 117.502 122.552 121.521C126.716 125.183 133.1 124.713 137.021 120.791L187.345 70.459C189.905 67.8986 191.039 64.4469 190.779 61.1087H165.358V61.0925Z" fill="#E5E5E5"/>
<path d="M205.118 61.0925L206.074 62.0486L161.81 106.32C157.581 110.55 157.76 117.502 162.312 121.521C166.476 125.183 172.86 124.713 176.781 120.791L227.105 70.459C229.665 67.8986 230.799 64.4469 230.54 61.1087H205.118V61.0925Z" fill="#E5E5E5"/>
<path d="M244.895 61.0925L245.851 62.0486L201.586 106.32C197.358 110.55 197.536 117.502 202.089 121.521C206.253 125.183 212.636 124.713 216.557 120.791L266.881 70.459C269.441 67.8986 270.575 64.4469 270.316 61.1087H244.895V61.0925Z" fill="#E5E5E5"/>
</g>
</svg>

<svg xmlns="http://www.w3.org/2000/svg" width="391" height="125" fill="none"><path fill="#FFC300" d="M249.406 0c-2.657 0-5.331 1.02-7.356 3.047-4.067 4.067-4.067 10.662 0 14.714l44.264 44.272-44.264 44.271c-4.229 4.23-4.05 11.182.502 15.201 4.164 3.662 10.548 3.192 14.469-.73l50.324-50.332c4.634-4.635 4.634-12.154 0-16.805L256.762 3.047A10.394 10.394 0 0 0 249.406 0Z"/><path fill="#FFC300" d="M289.182 0c-2.657 0-5.33 1.02-7.356 3.047-4.066 4.067-4.066 10.662 0 14.714l44.265 44.272-44.265 44.271c-4.228 4.23-4.05 11.182.503 15.201 4.164 3.662 10.547 3.192 14.468-.73l50.324-50.332c4.634-4.635 4.634-12.154 0-16.805L296.538 3.047A10.392 10.392 0 0 0 289.182 0Z"/><path fill="#FFC300" d="M328.942 0c-2.657 0-5.33 1.02-7.356 3.047-4.066 4.067-4.066 10.662 0 14.714l44.265 44.272-44.265 44.271c-4.228 4.23-4.05 11.182.503 15.201 4.164 3.662 10.547 3.192 14.468-.73l50.324-50.332c4.634-4.635 4.634-12.154 0-16.805L336.298 3.047A10.392 10.392 0 0 0 328.942 0Z"/><g fill="#E5E5E5" style="mix-blend-mode:multiply"><path d="m285.358 61.093.956.956-44.264 44.271c-4.229 4.23-4.051 11.182.502 15.201 4.164 3.662 10.548 3.192 14.469-.73l50.324-50.332c2.56-2.56 3.694-6.012 3.434-9.35h-25.421v-.017ZM325.118 61.093l.956.956-44.264 44.271c-4.229 4.23-4.05 11.182.502 15.201 4.164 3.662 10.548 3.192 14.469-.73l50.324-50.332c2.56-2.56 3.694-6.012 3.435-9.35h-25.422v-.017ZM364.895 61.093l.956.956-44.265 44.271c-4.228 4.23-4.05 11.182.503 15.201 4.164 3.662 10.547 3.192 14.468-.73l50.324-50.332c2.56-2.56 3.694-6.012 3.435-9.35h-25.421v-.017Z"/></g><path fill="#FFC300" d="M10.406 0C7.749 0 5.076 1.02 3.05 3.047c-4.067 4.067-4.067 10.662 0 14.714l44.264 44.272L3.05 106.303c-4.229 4.23-4.05 11.182.502 15.201 4.164 3.662 10.548 3.192 14.469-.73l50.324-50.332c4.634-4.635 4.634-12.154 0-16.805L17.762 3.047A10.392 10.392 0 0 0 10.406 0Z"/><path fill="#FFC300" d="M50.182 0c-2.657 0-5.33 1.02-7.356 3.047-4.066 4.067-4.066 10.662 0 14.714l44.265 44.272-44.265 44.271c-4.229 4.23-4.05 11.182.503 15.201 4.163 3.662 10.547 3.192 14.468-.73l50.324-50.332c4.634-4.635 4.634-12.154 0-16.805L57.538 3.047A10.392 10.392 0 0 0 50.182 0Z"/><path fill="#FFC300" d="M89.942 0c-2.657 0-5.33 1.02-7.356 3.047-4.066 4.067-4.066 10.662 0 14.714l44.265 44.272-44.265 44.271c-4.228 4.23-4.05 11.182.503 15.201 4.164 3.662 10.547 3.192 14.468-.73l50.324-50.332c4.634-4.635 4.634-12.154 0-16.805L97.298 3.047A10.392 10.392 0 0 0 89.942 0Z"/><g fill="#E5E5E5" style="mix-blend-mode:multiply"><path d="m46.358 61.093.956.956L3.05 106.32c-4.229 4.23-4.05 11.182.502 15.201 4.164 3.662 10.548 3.192 14.469-.73l50.324-50.332c2.56-2.56 3.694-6.012 3.434-9.35H46.36v-.017ZM86.118 61.093l.956.956L42.81 106.32c-4.229 4.23-4.05 11.182.502 15.201 4.164 3.662 10.548 3.192 14.469-.73l50.324-50.332c2.56-2.56 3.694-6.012 3.435-9.35H86.118v-.017ZM125.895 61.093l.956.956-44.265 44.271c-4.228 4.23-4.05 11.182.503 15.201 4.163 3.662 10.547 3.192 14.468-.73l50.324-50.332c2.56-2.56 3.694-6.012 3.435-9.35h-25.421v-.017Z"/></g><path fill="#FFC300" d="M129.406 0c-2.657 0-5.331 1.02-7.356 3.047-4.067 4.067-4.067 10.662 0 14.714l44.264 44.272-44.264 44.271c-4.229 4.23-4.05 11.182.502 15.201 4.164 3.662 10.548 3.192 14.469-.73l50.324-50.332c4.634-4.635 4.634-12.154 0-16.805L136.762 3.047A10.394 10.394 0 0 0 129.406 0Z"/><path fill="#FFC300" d="M169.182 0c-2.657 0-5.33 1.02-7.356 3.047-4.066 4.067-4.066 10.662 0 14.714l44.265 44.272-44.265 44.271c-4.228 4.23-4.05 11.182.503 15.201 4.164 3.662 10.547 3.192 14.468-.73l50.324-50.332c4.634-4.635 4.634-12.154 0-16.805L176.538 3.047A10.392 10.392 0 0 0 169.182 0Z"/><path fill="#FFC300" d="M208.942 0c-2.657 0-5.33 1.02-7.356 3.047-4.066 4.067-4.066 10.662 0 14.714l44.265 44.272-44.265 44.271c-4.228 4.23-4.05 11.182.503 15.201 4.164 3.662 10.547 3.192 14.468-.73l50.324-50.332c4.634-4.635 4.634-12.154 0-16.805L216.298 3.047A10.392 10.392 0 0 0 208.942 0Z"/><g fill="#E5E5E5" style="mix-blend-mode:multiply"><path d="m165.358 61.093.956.956-44.264 44.271c-4.229 4.23-4.051 11.182.502 15.201 4.164 3.662 10.548 3.192 14.469-.73l50.324-50.332c2.56-2.56 3.694-6.012 3.434-9.35h-25.421v-.017ZM205.118 61.093l.956.956-44.264 44.271c-4.229 4.23-4.05 11.182.502 15.201 4.164 3.662 10.548 3.192 14.469-.73l50.324-50.332c2.56-2.56 3.694-6.012 3.435-9.35h-25.422v-.017ZM244.895 61.093l.956.956-44.265 44.271c-4.228 4.23-4.05 11.182.503 15.201 4.164 3.662 10.547 3.192 14.468-.73l50.324-50.332c2.56-2.56 3.694-6.012 3.435-9.35h-25.421v-.017Z"/></g></svg>
